X: 191
T:Red Haired Boy
N:Updated 6/23/08
M:2/4
K:A
|:A=G|"A"E2A2 A2cd|"A"efec "D"d2cd|"A"edcB ABcA|"Em"B=GEF =G2AG|
"A"E2A2 A2cd|"A"efec "D"d2cd|"A"eaag "Em"a=ged|"A"c2A2 A2:|
|:ef|"Em"=gfef gfef|=gfec "D"d2cd|"A"edcB ABcA|"Em"B=GEF =G2AG|
"A"EAAG ABcd|"A"efec "D"d2cd|"A"eaag "Em"a=ged|"A"c2A2 A2:|
